X: 4138
T: LORD KINGARTH
R: Reel.
%R: reel
B: James Kerr "Merry Melodies" v.4 p.17 #138
Z: 2016 John Chambers <jc:trillian.mit.edu>
M: C|
L: 1/8
K: Am
uB |\
eA A/A/A (ed)Bd | eA A/A/A (GA)Bd |\
eA A/A/A (ed)Bd | edgB A2-A ::\
d |\
edeg abag | dedB degd |\
edeg abag | edgB (B2A) :|

%%sep 1 1 500
%%sep 1 1 500

